X:1
T:In voce exultationis - Pitoni
T:#
%%score [ 1 2 3 4 ]
L:1/8
Q:1/4=200
M:none
K:C
V:1 treble nm="Soprano" snm="S"
V:2 treble nm="Alto" snm="A"
V:3 treble-8 nm="Tenor" snm="T"
V:4 bass nm="Bass" snm="B"
V:1
"^In voce exultationis""^Giuseppe Ottavio Pitoni\n(1657-1743)" d16 | G8 d4 d4- | %2
w: In|vo- ce ex\-|
 d2 c2 d2 B2 (c4 A4 | B4 c6 B2 B2 AG | A4 d6 c2 B4) |[M:4/2] A8 z4 d4 | (G4 d8 e4 | d6 cB c8) | %8
w: * ul- ta- ti- o\- *|||nis, in|vo\- * *||
 B4 d6 c2 d2 B2 | (c6 Bc d8) | e8 z4 G4- | G4 A4 G8- | G4 D4 E4 C4 | z4 G8 G4 | A4 B4 (c4 A4 | %15
w: ce ex- ul- ta- ti-|o\- * * *|nis, ex\-|* ul- ta\-|* ti- o- nis,|ex- ul-|ta- ti- o\- *|
 B4 c8 B4) | c8 z8 | z4 (e4 c4 f4 | B4 e4 A4 d4 | G4 A6 G2 G4- | G4) ^F4 G4 d4- | d4 d4 B8 | z16 | %23
w: |nis,|re\- * *|||* so- nent, re\-|* so- nent,||
 (e8 d8 | c8 B8 | A8 G8 | F8 E8 | D6) D2 C8 | z8 z4 G4- | G4 D4 (F2 E2 E2 DC | D8) C4 G4- | %31
w: re\- *||||* so- nent|e\-|* pu- lan\- * * * *|* tes, e\-|
 G4 D4 (F2 E2 E2 DC | D4 d6 c2 c4- | c4 B4) c8 | z16 | z16 | z4 G4 A8 | G4 (c6 B2 B2 cB | %38
w: * pu- lan\- * * * *||* * tes|||in men-|sa Do\- * * * *|
 A4) A4 G8 | z16 | (e8 d8 | c8 B8 | A8 G8 | F8 E8 | D6) D2 C8 | z8 z4 e4 | (c4 f4 B4 e4 | %47
w: * mi- ni,||re\- *||||* so- nent,|re\-||
 A4 d4 G4 A4- | A2 G2 G8) ^F4 | G4 d8 d4 | B4 d8 A4 | (c2 B2 B2 AG A8) | G4 d8 A4 | %53
w: |* * * so-|nent, re- so-|nent e- pu-|lan\- * * * * *|tes, e- pu-|
 (c2 B2 B2 AG A8) | G8 z8 | z4 G4 A8 | G4 (c6 B2 B2 cB) | (A4 d6 c2 c4 | B8 c4 d2 c2 | %59
w: lan\- * * * * *|tes|in men-|sa Do\- * * * *|||
 B2 A2 G4 ^F4) G4 | A8 z8 | z4 G4 A8 | G4 (c6 B2 B2 cB | A4 d6 c2 c2 BA |[Q:1/4=193] d16 | %65
w: * * * * mi-|ni,|in men-|sa Do\- * * * *|||
[Q:1/4=185] e6[Q:1/4=182] d[Q:1/4=181]c[Q:1/4=179] d4[Q:1/4=177] B4 | %66
w: |
[Q:1/4=173] A6)[Q:1/4=170] A2[Q:1/4=170] B16 |] %67
w: * mi- ni.|
V:2
 z16 | z8 z4 D4- | D4 D4 E4 ^F4 | (G4 E4 ^F4 G4- | G4 ^F4 G6 FE) |[M:4/2] (^F6 G2 A4) D4 | z16 | %7
w: |Ex\-|* ul- ta- ti-|o\- * * *||* * * nis,||
 z16 | G16 | C8 G4 G4- | G2 F2 G2 (E2 F4 D4) | (E4 F6 E2 E2 DC | D4 G6 F2 E4) | D8 z8 | %14
w: |in|vo- ce ex-|ul- ta- ti- o\- * *|||nis,|
 (F8 E4) C4 | D4 E4 F8 | E8 z8 | z8 (A8 | G8 F8 | E8 D8 | C8 B,8 | A,6) A,2 (G,2 A,2 B,2 G,2 | %22
w: ex\- * ul-|ta- ti- o-|nis,|re\-||||* so- nent, * * *|
 C8) z8 | z4 (A4 ^F4 B4 | E4 A4 D4 E4- | E2 D2 D6 C2 C4- | C4) B,4 C4 G4- | G4 G4 E4 G4- | %28
w: |re\- * *|||* so- nent, re\-|* so- nent e\-|
 G4 D4 (F2 E2 E2 DC) | D8 C4 G4- | G4 D4 (F2 E2 E2 DC | D8) C8 | z4 D4 E8 | D4 (G6 F2 F2 GF) | %34
w: * pu- lan\- * * * *|* tes, e\-|* pu- lan\- * * * *|* tes|in men-|sa Do\- * * * *|
 (E8 D4 G4- | G4) ^F4 G4 (G,4 | D8 E4 F4 | G4 G,4 A,4 B,4 | C4 D8) B,4 | C8 z8 | z4 (A4 ^F4 B4 | %41
w: |* mi- ni, Do\-|||* * mi-|ni,|re\- * *|
 E4 A4 D4 E4- | E2 D2 D6 C2 C4- | C4) B,4 C4 G4- | G4 G4 (E2 F2 G2 E2 | A8) z8 | (A8 G8 | F8 E8 | %48
w: ||* so- nent, re\-|* so- nent, * * *||re\- *||
 D8 C8 | B,8 A,6) A,2 | (G,2 A,2 B,2 G,2 A,8) | z4 D8 A,4 | (C2 B,2 B,2 A,G, A,8) | G,4 D8 A,4 | %54
w: |* * so-|nent * * * *|e- pu-|lan\- * * * * *|tes, e- pu-|
 (C2 B,2 B,2 A,G, A,8) | B,8 z4 D4 | E8 D4 G4- | (G2 F2 F2 GF E4 A4- | A2 G2 G8) ^F4 | G4 (G,4 D8 | %60
w: lan\- * * * * *|tes in|men- sa Do\-||* * * mi-|ni, Do\- *|
 E4 F4 G4 E4 | D8 C4 D4) | B,4 C4 D8 | z4 D4 E8 | D4 (G6 F2 F2 GF | E4 A6 G2 G4- | G4) ^F4 G16 |] %67
w: ||* mi- ni,|in men-|sa Do\- * * * *||* mi- ni.|
V:3
 z16 | z16 | z16 | z8 d8- | d8 G8 |[M:4/2][K:treble-8] d4 d6 c2 d2 B2 | ((c4 A4 B4 c4- | %7
w: |||In|* vo-|ce ex- ul- ta- ti-|o\- * * *|
 c2 B2 B2 AG A8 | d2 c2 B2 A2 B8)) | E8 z4 G4- | G4 G4 A4 B4 | (c4 A4 B4 c4- | c4 B4) c8 | %13
w: ||nis, ex\-|* ul- ta- ti-|o\- * * *|* * nis,|
 z4 B6 A2 B2 G2 | (c4 d4 c6 BA | G8 d8) | G4 (e4 c4 f4) | (B4 e4 A4 d4 | G4 c6 B2 B4- | %19
w: ex- ul- ta- ti-|o\- * * * *||nis, re\- * *|||
 B4 A4 D2 EF G2 D2 | A8 D4 G4- | G4) ^F4 G8 | (e8 d8) | (c8 B8 | A8 G8 | F8 E8 | D6) D2 C8 | %27
w: ||* so- nent,|re\- *||||* so- nent,|
 G6 G2 C8 | G8 A4 c4- | (c4 B4 c8) | G4 G4 A4 (c4- | c4 B4 c8) | G8 z8 | z4 G4 A8 | %34
w: re- so- nent|e- pu- lan\-||tes, e- pu- lan\-||tes|in men-|
 G4 (c6 B2 B2 cB | A8 G4 c4- | c4 B4 A4 d4- | d2 c2 c2 Bc d8) | A8 B8 | (e8 d8) | (c8 B8 | A8 G8 | %42
w: sa Do\- * * * *||||mi- ni,|re\- *|||
 F8 E8 | D6) D2 C8 | G6 G2 C4 (e4 | c4 f4 B4 e4) | (A4 d4 G4 c4- | c2 B2 B8 A4 | D2 EF G2 D2 A8 | %49
w: |* so- nent,|re- so- nent, re\-|||||
 D4 G8) ^F4 | G8 D8 | E4 (G8 ^F4) | G8 D4 D4 | E4 (G8 ^F4 | G8 D4 A4- | A2 G2 G8 ^F4 | E6 =F2 G8) | %57
w: * * so-|nent e-|pu- lan\- *|* tes, e-|pu- lan\- *||||
 D8 z8 | z4 G4 A8 | G4 (c6 B2 B2 cB | A4 d6 c2 c4 | B6) B2 A4 D4 | E8 D4 (G4- | %63
w: tes|in men-|sa Do\- * * * *||* mi- ni, in|men- sa Do\-|
 G2 F2 F2 GF E6) F2 | G4 G4 (D6 EF | G4 A4) D4 d4- | d4 d4 d16 |] %67
w: * * * * * * mi-|ni, in men\- * *|* * sa Do\-|* mi- ni.|
V:4
 z16 | z16 | z16 | z16 | z16 |[M:4/2] z4 D,8 D,4 | E,4 ^F,4 (G,4 E,4 | ^F,4 G,8 F,4) | %8
w: |||||Ex- ul-|ta- ti- o\- *||
 G,4 G,,8 G,,4 | A,,4 C,4 B,,8 | C,8 z8 | z8 G,8- | G,8 C,8 | G,4 G,6 F,2 G,2 E,2 | %14
w: nis, ex- ul-|ta- ti- o-|nis,|in|* vo-|ce ex- ul- ta- ti-|
 (F,4 D,4 E,4 F,4- | F,2 E,2 E,2 D,C, D,8) | C,8 A,8 | (G,8 F,8 | E,8 D,8 | C,8 B,,8 | %20
w: o\- * * *||nis re\-||||
 A,,6) A,,2 G,,8 | D,6 D,2 G,,8 | z4 (A,4 ^F,4 B,4) | (E,4 A,4 D,4 G,4 | C,4 F,6 E,2 E,4 | %25
w: * so- nent,|re- so- nent,|re\- * *|||
 A,8 B,4 C4 | D8 G,2 A,B, C4- | C4) B,4 C8 | z16 | G,8 A,4 (C4- | C4 B,4 C8) | G,4 G,4 A,4 (C4- | %32
w: ||* so- nent,||e- pu- lan\-||tes, e- pu- lan\-|
 C4 B,4 C8) | G,8 z8 | z16 | z4 D,4 E,8 | D,4 (G,6 F,2 F,2 G,F, | E,8 D,4 G,4- | G,4) ^F,4 G,8 | %39
w: |tes||in men-|sa Do\- * * * *||* mi- ni,|
 z4 (A,4 ^F,4 B,4) | (E,4 A,4 D,4 G,4 | C,4 F,6 E,2 E,4 | A,8 B,4 C4 | D8 G,2 A,B, C4- | %44
w: re\- * *|||||
 C4) B,4 C8 | (A,8 G,8) | (F,8 E,8 | D,8 C,8 | B,,8 A,,6) A,,2 | G,,8 D,6 D,2 | G,,8 z8 | z8 D,8 | %52
w: * so- nent,|re\- *|||* * so-|nent, re- so-|nent|e-|
 E,4 (G,8 ^F,4 | G,8) D,4 D,4 | E,4 (G,8 ^F,4 | G,8) D,8 | z16 | z16 | z8 z4 D,4 | E,8 D,4 (G,4- | %60
w: pu- lan\- *|* tes, e-|pu- lan\- *|* tes|||in|men- sa Do\-|
 G,2 F,2 F,2 G,F, E,4 A,4- | A,2 G,2 G,8) ^F,4 | G,8 z4 G,4 | A,8 G,4 (C4- | %64
w: |* * * mi-|ni, in|men- sa Do\-|
 C2 B,2 B,2 CB, A,4 D,4- | D,2 C,2 C,4 B,,6 C,2 | D,4) D,4 G,,16 |] %67
w: ||* mi- ni.|

